frontend/public/svg/interface/shield.svg

<svg width="157" height="156" viewBox="0 0 157 156" fill="none" xmlns="http://www.w3.org/2000/svg">
<g clip-path="url(#clip0)">
<path d="M25.1836 115.576C36.9382 133.366 51.0647 145.947 68.3703 154.04C70.4789 155.085 72.7773 155.698 75.1283 155.843C77.4794 155.988 79.8356 155.661 82.0573 154.881C93.3342 151.097 101.728 146.359 108.473 139.971C112.466 136.19 115.574 132.993 118.255 129.909C134.799 110.882 146.53 87.644 155.18 56.7786C156.22 53.0754 156.291 49.1193 156.226 45.7378C156.191 43.8775 155.653 42.4482 154.629 41.4889C153.515 40.4468 151.815 39.9604 149.59 40.0588L149.498 40.0629C148.694 40.1273 147.886 40.1037 147.087 39.9924C139.417 38.5741 130.529 36.7829 122.157 33.47C111.783 29.3655 103.815 25.158 97.0827 20.2281C93.5961 17.7905 90.6315 14.686 88.3617 11.0954C86.9876 8.73742 85.7955 6.2788 84.7951 3.74121C83.9449 1.68084 82.4623 0.354759 80.7274 0.103605C79.029 -0.143665 77.2675 0.682294 75.8999 2.36917C75.2434 3.18987 74.6863 4.08481 74.2404 5.03581C70.4145 13.0756 64.5435 19.9793 57.2104 25.0614C49.8394 30.3123 40.8695 35.8927 30.2277 37.4689C23.1726 38.513 16.3209 39.1422 8.09715 39.8542C2.72746 40.3203 1.36895 41.7181 1.1746 46.9781C1.15835 47.4228 1.16225 47.8678 1.16615 48.4058C1.16615 48.6802 1.17135 48.9782 1.17135 49.3122C1.17135 49.3336 1.17135 49.3547 1.17135 49.3767C1.28055 50.5011 1.37414 51.6574 1.46969 52.8329C1.69524 55.6027 1.92795 58.4644 2.3797 61.3164C3.05007 65.4823 3.95323 69.6076 5.085 73.6733C8.83678 87.1838 15.2211 100.499 25.1836 115.576ZM9.3107 47.7591L11.5362 47.6946C13.4004 47.6382 15.1931 47.5844 16.9852 47.5248C28.1242 47.1585 37.5694 45.3345 45.8608 41.951C55.7939 37.7913 64.9012 31.8984 72.7539 24.5501C74.1189 23.2248 75.3734 21.7908 76.5044 20.2623C76.8547 19.8137 77.2051 19.3665 77.5606 18.925C78.2756 18.0421 78.9406 17.1125 79.6458 16.1215C79.8064 15.8976 79.9702 15.6695 80.1372 15.4369L81.3371 17.2616C83.9826 21.3234 87.2963 24.9122 91.1398 27.8773C103.345 37.2664 117.4 43.8831 134.105 48.1068C136.499 48.7113 138.899 49.2687 141.438 49.8584C142.454 50.094 143.491 50.3354 144.558 50.5859C144.455 51.1543 144.363 51.7265 144.267 52.3C144.035 53.9583 143.687 55.5987 143.227 57.2091C136.084 80.024 128.483 96.426 118.58 110.392C111.404 120.513 104.17 128.526 96.4665 134.889C91.548 138.952 85.7337 142.249 77.6165 145.579C76.1378 146.187 75.0035 145.749 73.4429 145.011C57.5081 137.478 44.4815 126.083 33.6193 110.174C24.632 97.1924 17.7104 82.9064 13.0988 67.8217C11.3952 62.1151 10.5489 56.2796 9.65383 50.1018C9.54028 49.325 9.42594 48.544 9.3107 47.7591Z" fill="black"/>
<path d="M49.326 80.9232C50.583 81.6456 52.0048 82.0359 53.4561 82.0566C57.5511 82.2055 61.7163 82.256 65.7411 82.3052L68.7959 82.3434C70.1349 82.3621 71.4739 82.3589 72.9748 82.3524C73.5045 82.3524 74.0538 82.3492 74.631 82.3485C74.631 82.5479 74.631 82.7427 74.6264 82.9311C74.6193 83.7299 74.6128 84.4846 74.6388 85.229C74.6823 86.4842 74.7239 87.7399 74.7636 88.9957C74.8988 93.2032 75.0392 97.555 75.3076 101.832C75.4363 103.376 75.9752 104.857 76.8676 106.126C77.1835 106.626 77.6164 107.042 78.1286 107.338C78.6415 107.635 79.2187 107.803 79.8108 107.829C79.8641 107.829 79.9181 107.829 79.972 107.824C80.5889 107.764 81.1797 107.545 81.6874 107.191C82.195 106.838 82.6026 106.36 82.871 105.804C83.6614 104.356 84.0826 102.738 84.0976 101.091C84.0976 97.0611 83.9858 92.9688 83.8753 89.0112C83.8324 87.3878 83.7888 85.7644 83.7453 84.1416C83.7323 83.5816 83.7355 83.0217 83.7394 82.4081V82.0501L84.4031 81.9925C85.2214 81.92 85.9507 81.8553 86.6781 81.8022C88.1627 81.6948 89.6486 81.5996 91.1345 81.5038C94.6971 81.2747 98.382 81.0384 101.994 80.6332C103.96 80.3866 105.837 79.6784 107.474 78.567C108.004 78.2595 108.44 77.8135 108.735 77.2776C109.029 76.7409 109.171 76.1351 109.144 75.5247C109.042 74.8968 108.77 74.3084 108.356 73.8236C107.943 73.3387 107.405 72.9749 106.799 72.7723C105.386 72.1658 103.856 71.8771 102.318 71.9263C99.3726 72.0745 96.3897 72.3328 93.5044 72.5833C92.0061 72.7128 90.5079 72.8422 89.009 72.9588C87.5946 73.0675 86.2016 73.1426 84.7274 73.2177L83.3624 73.2915C83.3345 73.0772 83.3065 72.872 83.2799 72.6739C83.1811 71.9399 83.0953 71.3062 83.0647 70.6835C82.8619 66.5886 82.6695 62.4927 82.4882 58.3961L82.2763 53.7674C82.2633 53.4858 82.2535 53.205 82.2438 52.926C82.2184 52.214 82.1924 51.4791 82.1138 50.749C82.0819 50.0403 81.7953 49.3666 81.3058 48.8509C80.8164 48.3353 80.1573 48.012 79.4488 47.9397C78.687 47.7697 77.8894 47.8972 77.2193 48.2959C76.5491 48.6947 76.0584 49.3344 75.8478 50.083C75.4909 51.0782 75.2803 52.1194 75.2225 53.1744C74.9891 58.76 74.8065 64.4376 74.6297 69.9313L74.6024 70.7638C74.5764 71.5858 74.5829 72.4086 74.59 73.2779C74.59 73.5187 74.5939 73.7627 74.5952 74.0132C74.3625 74.0527 74.137 74.0935 73.9166 74.133C73.2094 74.2786 72.4925 74.3763 71.7716 74.4249C66.8817 74.6249 61.9074 74.7977 57.0974 74.9654L52.4531 75.1279C52.2659 75.1343 52.0683 75.1214 51.872 75.1104C51.3075 75.0288 50.7313 75.0987 50.2028 75.3123C48.6006 76.1215 47.855 76.8212 47.7855 77.5837C47.7579 78.222 47.8832 78.8576 48.1511 79.4383C48.419 80.0189 48.8216 80.5283 49.326 80.9232Z" fill="black"/>
</g>
<defs>
<clipPath id="clip0">
<rect width="156" height="156" fill="white" transform="translate(0.777344)"/>
</clipPath>
</defs>
</svg>

<svg xmlns="http://www.w3.org/2000/svg" width="157" height="156" fill="none" viewBox="0 0 157 156"><g fill="#000" clip-path="url(#a)"><path d="M25.184 115.576c11.754 17.79 25.88 30.371 43.186 38.464a17.67 17.67 0 0 0 13.687.841c11.277-3.784 19.671-8.522 26.416-14.91 3.993-3.781 7.101-6.978 9.782-10.062 16.544-19.027 28.275-42.265 36.925-73.13 1.04-3.704 1.111-7.66 1.046-11.041-.035-1.86-.573-3.29-1.597-4.25-1.114-1.041-2.814-1.528-5.039-1.43l-.092.005c-.804.064-1.612.04-2.411-.07-7.67-1.419-16.558-3.21-24.93-6.523-10.374-4.104-18.342-8.312-25.074-13.242a32 32 0 0 1-8.721-9.133 54 54 0 0 1-3.567-7.354c-.85-2.06-2.333-3.386-4.068-3.637-1.698-.248-3.46.578-4.827 2.265a13.3 13.3 0 0 0-1.66 2.667A51.07 51.07 0 0 1 57.21 25.06c-7.37 5.251-16.34 10.832-26.982 12.408-7.055 1.044-13.907 1.673-22.13 2.385-5.37.466-6.73 1.864-6.923 7.124-.017.445-.013.89-.009 1.428 0 .274.005.572.005.906v.065c.11 1.124.203 2.28.299 3.456.225 2.77.458 5.631.91 8.483.67 4.166 1.573 8.292 2.705 12.357 3.752 13.51 10.136 26.826 20.099 41.903M9.31 47.759l2.225-.064c1.864-.057 3.657-.11 5.45-.17 11.138-.367 20.583-2.19 28.875-5.574a90.6 90.6 0 0 0 26.893-17.4 35 35 0 0 0 3.75-4.289q.524-.674 1.057-1.337c.715-.883 1.38-1.812 2.085-2.803l.491-.685 1.2 1.825a43.2 43.2 0 0 0 9.803 10.615c12.205 9.39 26.26 16.006 42.965 20.23a393 393 0 0 0 7.333 1.751c1.016.236 2.053.477 3.12.728-.103.568-.195 1.14-.291 1.714a36 36 0 0 1-1.04 4.91c-7.143 22.814-14.744 39.216-24.647 53.182-7.176 10.121-14.41 18.134-22.114 24.497-4.918 4.063-10.732 7.36-18.85 10.69-1.478.608-2.612.17-4.173-.568-15.935-7.533-28.961-18.928-39.824-34.837A153 153 0 0 1 13.1 67.822c-1.704-5.707-2.55-11.542-3.445-17.72z"/><path d="M49.326 80.923a8.5 8.5 0 0 0 4.13 1.134c4.095.148 8.26.199 12.285.248l3.055.038c1.339.02 2.678.016 4.179.01.53 0 1.079-.004 1.656-.004q.001.3-.005.582a53 53 0 0 0 .013 2.298q.065 1.882.125 3.767c.135 4.207.275 8.559.544 12.836a8.7 8.7 0 0 0 1.56 4.294c.316.5.748.916 1.26 1.212.513.297 1.09.465 1.683.491q.08.001.161-.005a3.61 3.61 0 0 0 2.899-2.02 10 10 0 0 0 1.227-4.713c0-4.03-.112-8.122-.223-12.08l-.13-4.87a59 59 0 0 1-.006-1.733v-.358l.664-.057c.818-.073 1.548-.138 2.275-.19 1.485-.108 2.97-.203 4.457-.3 3.562-.228 7.247-.465 10.859-.87a12.5 12.5 0 0 0 5.48-2.066 3.34 3.34 0 0 0 1.67-3.042 3.5 3.5 0 0 0-2.345-2.752 10.5 10.5 0 0 0-4.481-.847c-2.945.148-5.928.407-8.814.657-1.498.13-2.996.26-4.495.376-1.414.108-2.807.184-4.282.259l-1.365.073q-.041-.32-.082-.617c-.099-.734-.185-1.368-.215-1.99q-.304-6.142-.577-12.288l-.212-4.629a74 74 0 0 1-.032-.841c-.026-.712-.052-1.447-.13-2.177a2.95 2.95 0 0 0-.808-1.898 2.98 2.98 0 0 0-1.857-.911 3.06 3.06 0 0 0-2.23.356 3.04 3.04 0 0 0-1.371 1.787 11 11 0 0 0-.626 3.091c-.233 5.586-.415 11.264-.592 16.757l-.028.833c-.026.822-.02 1.645-.012 2.514l.005.735q-.349.06-.678.12-1.063.219-2.145.292c-4.89.2-9.865.373-14.675.54l-4.644.163c-.187.006-.385-.007-.581-.018a3.2 3.2 0 0 0-1.67.202c-1.601.81-2.347 1.51-2.416 2.272a4.01 4.01 0 0 0 1.54 3.34"/></g><defs><clipPath id="a"><path fill="#fff" d="M.777 0h156v156h-156z"/></clipPath></defs></svg>
